svgs/duotone/folder-user.svg

<svg xmlns="http://www.w3.org/2000/svg" viewBox="0 0 512 512"><!-- Font Awesome Pro 6.0.0-alpha2 by @fontawesome - https://fontawesome.com License - https://fontawesome.com/license (Commercial License) --><defs><style>.fa-secondary{opacity:.4}</style></defs><path d="M464 96H272L208 32H48C21.5 32 0 53.5 0 80V432C0 458.5 21.5 480 48 480H464C490.5 480 512 458.5 512 432V144C512 117.5 490.5 96 464 96ZM256 192C291.346 192 320 220.656 320 256S291.346 320 256 320S192 291.344 192 256S220.654 192 256 192ZM352 416H160C151.164 416 144 408.836 144 400C144 373.492 165.49 352 192 352H320C346.51 352 368 373.492 368 400C368 408.836 360.836 416 352 416Z" class="fa-secondary"/><path d="M256 320C291.346 320 320 291.344 320 256S291.346 192 256 192S192 220.656 192 256S220.654 320 256 320ZM320 352H192C165.49 352 144 373.492 144 400C144 408.836 151.164 416 160 416H352C360.836 416 368 408.836 368 400C368 373.492 346.51 352 320 352Z" class="fa-primary"/></svg>

<svg xmlns="http://www.w3.org/2000/svg" viewBox="0 0 512 512"><!--! Font Awesome Pro 6.3.0 by @fontawesome - https://fontawesome.com License - https://fontawesome.com/license (Commercial License) Copyright 2023 Fonticons, Inc. --><defs><style>.fa-secondary{opacity:.4}</style></defs><path class="fa-primary" d="M256 320c35.35 0 64-28.66 64-64s-28.65-64-64-64S192 220.7 192 256S220.7 320 256 320zM320 352H192c-26.51 0-48 21.49-48 48C144 408.8 151.2 416 160 416h192c8.836 0 16-7.164 16-16C368 373.5 346.5 352 320 352z"/><path class="fa-secondary" d="M464 96h-192l-64-64h-160C21.5 32 0 53.5 0 80v352C0 458.5 21.5 480 48 480h416c26.5 0 48-21.5 48-48v-288C512 117.5 490.5 96 464 96zM256 192c35.35 0 64 28.66 64 64s-28.65 64-64 64S192 291.3 192 256S220.7 192 256 192zM352 416H160c-8.836 0-16-7.164-16-16C144 373.5 165.5 352 192 352h128c26.51 0 48 21.49 48 48C368 408.8 360.8 416 352 416z"/></svg>
